X:54
C:Page 28
T:Drunk at Night & Dry in the Morning. MBe.54
S:Matthew Betham MS, Towcett Cumbria, 1815
O:England;Cumbria;Towcett
Z:VMP – Hugh Taylor, 2012
T:Whistle and I’ll come to you, my lad,aka. MBe.54
M:6/8
L:1/8
Q:3/8=100
R:.Jig
N:Someone in a different hand has written alongside the title “Oh, whistle and I’ll come to you, my lad”
N:The 14 bar B part is unusual, though another version from elsewhere has a 10 bar B part.
N:NB-The middle note of the second triplet looks like a correction from an ‘e’ to an ‘f’.
K:D
d/e/|fdB AGF|Eee e2 d/e/|fdB AFA|Bdd d3:|
|:A|dfa d”^NB”fa|dfa afe|dfa dfa|bee e2 f/e/|
dfa dfa|(dfa a2) g|fdB AGF|Eee e2 d/e/|
fdB AFA|Bdd d2 F|GA/G/A/G/ FA/F/A/F/|Eee e2 d/e/|
fdB AFA|Bdd d3:|

